polaris-icons/icons/newicons/IncomingMajor.svg

<svg width="20" height="20" viewBox="0 0 20 20" fill="none" xmlns="http://www.w3.org/2000/svg">
<path d="M3.5 10.25C3.5 9.83579 3.83579 9.5 4.25 9.5C4.66421 9.5 5 9.83579 5 10.25L5 12.75C5 13.9926 6.00736 15 7.25 15H12.75C13.9926 15 15 13.9926 15 12.75V7.25C15 6.00736 13.9926 5 12.75 5L10.25 5C9.83579 5 9.5 4.66421 9.5 4.25C9.5 3.83579 9.83579 3.5 10.25 3.5H12.75C14.8211 3.5 16.5 5.17893 16.5 7.25V12.75C16.5 14.8211 14.8211 16.5 12.75 16.5H7.25C5.17893 16.5 3.5 14.8211 3.5 12.75L3.5 10.25Z" fill="black"/>
<path d="M6.5 10.5C6.5 10.0858 6.83579 9.75 7.25 9.75H8.43934L3.46967 4.78033C3.17678 4.48744 3.17678 4.01256 3.46967 3.71967C3.76256 3.42678 4.23744 3.42678 4.53033 3.71967L9.5 8.68934V7.5C9.5 7.08579 9.83579 6.75 10.25 6.75C10.6642 6.75 11 7.08579 11 7.5V10.5C11 10.9142 10.6642 11.25 10.25 11.25H7.25C6.83579 11.25 6.5 10.9142 6.5 10.5Z" fill="black"/>
</svg>

<svg viewBox="0 0 20 20" fill="none" xmlns="http://www.w3.org/2000/svg"><path d="M3.5 10.25a.75.75 0 0 1 1.5 0v2.5a2.25 2.25 0 0 0 2.25 2.25h5.5a2.25 2.25 0 0 0 2.25-2.25v-5.5a2.25 2.25 0 0 0-2.25-2.25h-2.5a.75.75 0 0 1 0-1.5h2.5a3.75 3.75 0 0 1 3.75 3.75v5.5a3.75 3.75 0 0 1-3.75 3.75h-5.5a3.75 3.75 0 0 1-3.75-3.75v-2.5Z" fill="#5C5F62"/><path d="M6.5 10.5a.75.75 0 0 1 .75-.75h1.19l-4.97-4.97a.75.75 0 0 1 1.06-1.06l4.97 4.97v-1.19a.75.75 0 0 1 1.5 0v3a.75.75 0 0 1-.75.75h-3a.75.75 0 0 1-.75-.75Z" fill="#5C5F62"/></svg>
